public/images/hashed/b61042e1895e44bff3645c0dd989d4ce.svg

<svg xmlns="http://www.w3.org/2000/svg" width="80" height="80"><defs><linearGradient id="a" x1="0%" x2="100%" y1="100%" y2="0%"><stop offset="0%" stop-color="#B0084D"/><stop offset="100%" stop-color="#FF4F8B"/></linearGradient></defs><g fill="none" fill-rule="evenodd"><path fill="url(#a)" d="M0 0h80v80H0z"/><path fill="#FFF" d="M17 38c1.103 0 2 .897 2 2s-.897 2-2 2-2-.897-2-2 .897-2 2-2Zm24 26c-11.686 0-21.711-8.534-23.806-20.02A3.984 3.984 0 0 0 20.857 41H27v-2h-6.143a3.985 3.985 0 0 0-3.662-2.98C19.285 24.71 29.511 16 41 16c4.313 0 8.832 1.622 13.429 4.821l1.142-1.642C50.633 15.743 45.73 14 41 14c-12.73 0-24.051 9.865-25.937 22.521C13.839 37.207 13 38.5 13 40s.839 2.793 2.063 3.478C16.97 56.341 28.056 66 41 66c5.407 0 10.942-1.843 15.585-5.189l-1.17-1.622C51.11 62.292 45.991 64 41 64ZM30.101 36.442c1.854.453 4.174.558 5.899.558 1.642 0 3.823-.095 5.629-.494l-4.524 9.047A1.002 1.002 0 0 0 37 46v4.453c-.801.511-2.167 1.359-3 1.533V46a.998.998 0 0 0-.077-.385l-3.822-9.173ZM36 33c4.025 0 6.174.604 6.841 1-.667.396-2.816 1-6.841 1s-6.174-.604-6.841-1c.667-.396 2.816-1 6.841-1Zm-3 21h1c.043 0 .086-.003.128-.008 1.224-.159 2.781-1.105 4.144-1.979l.263-.168c.289-.184.465-.503.465-.845v-4.764l5.559-11.116c.274-.319.441-.686.441-1.12 0-2.61-5.639-3-9-3-3.361 0-9 .39-9 3 0 .366.12.684.32.967L32 46.2V53a1 1 0 0 0 1 1Zm29-1c1.103 0 2 .897 2 2s-.897 2-2 2-2-.897-2-2 .897-2 2-2Zm0-30c1.103 0 2 .897 2 2s-.897 2-2 2-2-.897-2-2 .897-2 2-2Zm2 15c1.103 0 2 .897 2 2s-.897 2-2 2-2-.897-2-2 .897-2 2-2Zm-10 3h6.143c.446 1.72 1.999 3 3.857 3 2.206 0 4-1.794 4-4s-1.794-4-4-4c-1.858 0-3.411 1.28-3.857 3H54V26h4.143c.446 1.72 1.999 3 3.857 3 2.206 0 4-1.794 4-4s-1.794-4-4-4c-1.858 0-3.411 1.28-3.857 3H53a1 1 0 0 0-1 1v14h-7v2h7v14a1 1 0 0 0 1 1h5.143c.446 1.72 1.999 3 3.857 3 2.206 0 4-1.794 4-4s-1.794-4-4-4c-1.858 0-3.411 1.28-3.857 3H54V41Z"/></g></svg>

<?xml version="1.0" encoding="UTF-8"?>
<svg width="80px" height="80px" viewBox="0 0 80 80" version="1.1" xmlns="http://www.w3.org/2000/svg" xmlns:xlink="http://www.w3.org/1999/xlink">
    <!-- Generator: Sketch 64 (93537) - https://sketch.com -->
    <title>Icon-Architecture/64/Arch_AWS-Simple-Notification-Service_64</title>
    <desc>Created with Sketch.</desc>
    <defs>
        <linearGradient x1="0%" y1="100%" x2="100%" y2="0%" id="linearGradient-1">
            <stop stop-color="#B0084D" offset="0%"></stop>
            <stop stop-color="#FF4F8B" offset="100%"></stop>
        </linearGradient>
    </defs>
    <g id="Icon-Architecture/64/Arch_AWS-Simple-Notification-Service_64" stroke="none" stroke-width="1" fill="none" fill-rule="evenodd">
        <g id="Icon-Architecture-BG/64/Application-Integration" fill="url(#linearGradient-1)">
            <rect id="Rectangle" x="0" y="0" width="80" height="80"></rect>
        </g>
        <path d="M17,38 C18.103,38 19,38.897 19,40 C19,41.103 18.103,42 17,42 C15.897,42 15,41.103 15,40 C15,38.897 15.897,38 17,38 L17,38 Z M41,64 C29.314,64 19.289,55.466 17.194,43.98 C18.965,43.894 20.427,42.659 20.857,41 L27,41 L27,39 L20.857,39 C20.427,37.342 18.966,36.107 17.195,36.02 C19.285,24.71 29.511,16 41,16 C45.313,16 49.832,17.622 54.429,20.821 L55.571,19.179 C50.633,15.743 45.73,14 41,14 C28.27,14 16.949,23.865 15.063,36.521 C13.839,37.207 13,38.5 13,40 C13,41.5 13.839,42.793 15.063,43.478 C16.97,56.341 28.056,66 41,66 C46.407,66 51.942,64.157 56.585,60.811 L55.415,59.189 C51.11,62.292 45.991,64 41,64 L41,64 Z M30.101,36.442 C31.955,36.895 34.275,37 36,37 C37.642,37 39.823,36.905 41.629,36.506 L37.105,45.553 C37.036,45.691 37,45.845 37,46 L37,50.453 C36.199,50.964 34.833,51.812 34,51.986 L34,46 C34,45.868 33.974,45.737 33.923,45.615 L30.101,36.442 Z M36,33 C40.025,33 42.174,33.604 42.841,34 C42.174,34.396 40.025,35 36,35 C31.975,35 29.826,34.396 29.159,34 C29.826,33.604 31.975,33 36,33 L36,33 Z M33,54 L34,54 C34.043,54 34.086,53.997 34.128,53.992 C35.352,53.833 36.909,52.887 38.272,52.013 L38.535,51.845 C38.824,51.661 39,51.342 39,51 L39,46.236 L44.559,35.12 C44.833,34.801 45,34.434 45,34 C45,31.39 39.361,31 36,31 C32.639,31 27,31.39 27,34 C27,34.366 27.12,34.684 27.32,34.967 L32,46.2 L32,53 C32,53.552 32.447,54 33,54 L33,54 Z M62,53 C63.103,53 64,53.897 64,55 C64,56.103 63.103,57 62,57 C60.897,57 60,56.103 60,55 C60,53.897 60.897,53 62,53 L62,53 Z M62,23 C63.103,23 64,23.897 64,25 C64,26.103 63.103,27 62,27 C60.897,27 60,26.103 60,25 C60,23.897 60.897,23 62,23 L62,23 Z M64,38 C65.103,38 66,38.897 66,40 C66,41.103 65.103,42 64,42 C62.897,42 62,41.103 62,40 C62,38.897 62.897,38 64,38 L64,38 Z M54,41 L60.143,41 C60.589,42.72 62.142,44 64,44 C66.206,44 68,42.206 68,40 C68,37.794 66.206,36 64,36 C62.142,36 60.589,37.28 60.143,39 L54,39 L54,26 L58.143,26 C58.589,27.72 60.142,29 62,29 C64.206,29 66,27.206 66,25 C66,22.794 64.206,21 62,21 C60.142,21 58.589,22.28 58.143,24 L53,24 C52.447,24 52,24.448 52,25 L52,39 L45,39 L45,41 L52,41 L52,55 C52,55.552 52.447,56 53,56 L58.143,56 C58.589,57.72 60.142,59 62,59 C64.206,59 66,57.206 66,55 C66,52.794 64.206,51 62,51 C60.142,51 58.589,52.28 58.143,54 L54,54 L54,41 Z" id="AWS-Simple-Notification-Service_Icon_64_Squid" fill="#FFFFFF"></path>
    </g>
</svg>
